X:8
T:Knarligen
C:Andrea Hoag
S:Andrea Hoag and Bruce Sagan
F:http://pineycreekweasels.net/andy/tunes/lilkid.abc	 2005-07-08 06:21:55 UT
Z:Modified from net version
M:4/4
L:1/8
K:G
DEF
| G3F E2DD | EDEF GDEF | G3D B,2 G,A, | G,2 B2 ADEF
| G3F E2DD | EDEF GDEF | G3D B,2 G,A, | G,2 B2 A2 dc |
|: B3A GFED | EDEF GBdc | B3A GFED | CEB,G A,2 dc
|  B3A GFED | E2d2 A3G | FGFD EDEF |[1 G6 dc :|[2 G4- GDEF ||
